dist/assets/img/questions/1/answers/2.svg

<svg width="460" height="259" viewBox="0 0 460 259" fill="none" xmlns="http://www.w3.org/2000/svg">
<g filter="url(#filter0_di_1495_61366)">
<path fill-rule="evenodd" clip-rule="evenodd" d="M63.7664 28C59.6851 28 56.2581 31.0723 55.814 35.1293L40.0484 179.129C39.5301 183.864 43.238 188 48.0009 188H363.006C365.542 188 367.905 189.223 369.528 191.171C375.624 198.488 384.246 205.726 394.025 206.688C394.097 206.695 394.138 206.609 394.088 206.558C392.352 204.763 389.796 202.121 387.149 198.791C383.461 194.152 387.128 188 393.055 188H395.388C399.469 188 402.896 184.928 403.341 180.871L419.106 36.8707C419.624 32.136 415.917 28 411.154 28H63.7664Z" fill="#FFF0CB"/>
</g>
<defs>
<filter id="filter0_di_1495_61366" x="0" y="0" width="459.156" height="258.688" filterUnits="userSpaceOnUse" color-interpolation-filters="sRGB">
<feFlood flood-opacity="0" result="BackgroundImageFix"/>
<feColorMatrix in="SourceAlpha" type="matrix" values="0 0 0 0 0 0 0 0 0 0 0 0 0 0 0 0 0 0 127 0" result="hardAlpha"/>
<feOffset dy="12"/>
<feGaussianBlur stdDeviation="20"/>
<feComposite in2="hardAlpha" operator="out"/>
<feColorMatrix type="matrix" values="0 0 0 0 1 0 0 0 0 1 0 0 0 0 1 0 0 0 1 0"/>
<feBlend mode="normal" in2="BackgroundImageFix" result="effect1_dropShadow_1495_61366"/>
<feBlend mode="normal" in="SourceGraphic" in2="effect1_dropShadow_1495_61366" result="shape"/>
<feColorMatrix in="SourceAlpha" type="matrix" values="0 0 0 0 0 0 0 0 0 0 0 0 0 0 0 0 0 0 127 0" result="hardAlpha"/>
<feOffset dy="-4"/>
<feGaussianBlur stdDeviation="4"/>
<feComposite in2="hardAlpha" operator="arithmetic" k2="-1" k3="1"/>
<feColorMatrix type="matrix" values="0 0 0 0 0.883659 0 0 0 0 0.635314 0 0 0 0 0.0558422 0 0 0 0.4 0"/>
<feBlend mode="normal" in2="shape" result="effect2_innerShadow_1495_61366"/>
</filter>
</defs>
</svg>

<svg width="460" height="259" viewBox="0 0 460 259" fill="none" xmlns="http://www.w3.org/2000/svg"><g filter="url(#filter0_di_1495_61366)"><path fill-rule="evenodd" clip-rule="evenodd" d="M63.766 28a8 8 0 00-7.952 7.13L40.048 179.128c-.518 4.735 3.19 8.871 7.953 8.871h315.005c2.536 0 4.899 1.223 6.522 3.171 6.096 7.317 14.718 14.555 24.497 15.517a.077.077 0 00.063-.13c-1.736-1.795-4.292-4.437-6.939-7.767-3.688-4.639-.021-10.791 5.906-10.791h2.333a8.001 8.001 0 007.953-7.129l15.765-144c.518-4.735-3.189-8.871-7.952-8.871H63.766z" fill="#FFF0CB"/></g><defs><filter id="filter0_di_1495_61366" x="0" y="0" width="459.156" height="258.688" filterUnits="userSpaceOnUse" color-interpolation-filters="sRGB"><feFlood flood-opacity="0" result="BackgroundImageFix"/><feColorMatrix in="SourceAlpha" values="0 0 0 0 0 0 0 0 0 0 0 0 0 0 0 0 0 0 127 0" result="hardAlpha"/><feOffset dy="12"/><feGaussianBlur stdDeviation="20"/><feComposite in2="hardAlpha" operator="out"/><feColorMatrix values="0 0 0 0 1 0 0 0 0 1 0 0 0 0 1 0 0 0 1 0"/><feBlend in2="BackgroundImageFix" result="effect1_dropShadow_1495_61366"/><feBlend in="SourceGraphic" in2="effect1_dropShadow_1495_61366" result="shape"/><feColorMatrix in="SourceAlpha" values="0 0 0 0 0 0 0 0 0 0 0 0 0 0 0 0 0 0 127 0" result="hardAlpha"/><feOffset dy="-4"/><feGaussianBlur stdDeviation="4"/><feComposite in2="hardAlpha" operator="arithmetic" k2="-1" k3="1"/><feColorMatrix values="0 0 0 0 0.883659 0 0 0 0 0.635314 0 0 0 0 0.0558422 0 0 0 0.4 0"/><feBlend in2="shape" result="effect2_innerShadow_1495_61366"/></filter></defs></svg>
